X:605
T: LASST UNS DAS KINDLEIN WIEGEN
N: E1940
O: Europa, Mitteleuropa, Deutschland
R: geistlich, Fest - Lied, Weihnachten
M: 3/4
L: 1/8
K: G
G2 | G4A2 | B4c2 | A3GA2 | B4
G2 | G4A2 | B4c2 | A3GA2 | B4
B2 | d4c2 | B4A2 | B3AB2 | A4
B2 | d4c2 | B4A2 | B3AB2 | A4
A2 | D3EF2 | G4B2 | A3GA2 | G4

